icons/hexagon-arrow-right-outline.svg

<svg xmlns="http://www.w3.org/2000/svg" width="24" height="24" viewBox="0 0 24 24">
  <path d="M16.3174576,1 C17.4115312,1 18.4188507,1.59559898 18.9461053,2.55424375 L18.9461053,2.55424375 L23.3461053,10.5542438 C23.8412416,11.4544917 23.8412416,12.5455083 23.3461053,13.4457562 L23.3461053,13.4457562 L18.9461053,21.4457562 C18.4188507,22.404401 17.4115312,23 16.3174576,23 L16.3174576,23 L7.68254244,23 C6.58846875,23 5.58114934,22.404401 5.05389472,21.4457562 L5.05389472,21.4457562 L0.653894716,13.4457562 C0.158758351,12.5455083 0.158758351,11.4544917 0.653894716,10.5542438 L0.653894716,10.5542438 L5.05389472,2.55424375 C5.58114934,1.59559898 6.58846875,1 7.68254244,1 L7.68254244,1 Z M16.3174576,3 L7.68254244,3 C7.31785121,3 6.98207807,3.19853299 6.80632653,3.51808125 L6.80632653,3.51808125 L2.40632653,11.5180813 C2.24128108,11.8181639 2.24128108,12.1818361 2.40632653,12.4819187 L2.40632653,12.4819187 L6.80632653,20.4819187 C6.98207807,20.801467 7.31785121,21 7.68254244,21 L7.68254244,21 L16.3174576,21 C16.6821488,21 17.0179219,20.801467 17.1936735,20.4819187 L17.1936735,20.4819187 L21.5936735,12.4819187 C21.7587189,12.1818361 21.7587189,11.8181639 21.5936735,11.5180813 L21.5936735,11.5180813 L17.1936735,3.51808125 C17.0179219,3.19853299 16.6821488,3 16.3174576,3 L16.3174576,3 Z M17.7765424,11.371 C17.7813409,11.3758339 17.7823674,11.3771194 17.7833908,11.3784075 L17.8135366,11.4182204 L17.8135366,11.4182204 C17.8274737,11.4377852 17.8410808,11.4583066 17.8539326,11.4793398 C17.8622728,11.4928304 17.8701389,11.5064305 17.8776583,11.5201698 L17.9044938,11.5729619 L17.9044938,11.5729619 C17.9140881,11.5932325 17.9226898,11.613165 17.930613,11.6333026 C17.9375547,11.6508514 17.9440997,11.6689468 17.9501291,11.6872762 C17.9551048,11.7025958 17.9598259,11.7182588 17.9641549,11.734007 C17.9701664,11.7555635 17.9753602,11.7772539 17.9798348,11.7992059 C17.9832978,11.8166247 17.9863719,11.834051 17.9889822,11.8515331 C17.991899,11.8705796 17.994252,11.8903051 17.9960225,11.9101982 L17.9982669,11.9409686 L17.9982669,11.9409686 L17.9998167,11.9806591 L18,12 L18,12 L17.999,12.0181458 L17.9982669,12.0590314 L17.9972736,12.0740195 L17.9972736,12.0740195 L17.9965424,12.075 L17.9889807,12.1489612 L17.9889807,12.1489612 C17.9863441,12.1661068 17.9832818,12.1834538 17.9797599,12.2007258 C17.9753602,12.2227461 17.9701664,12.2444365 17.964279,12.2658396 C17.9599023,12.2814633 17.9552713,12.2968513 17.9502619,12.3121425 C17.9438775,12.3317977 17.9366843,12.3515792 17.928896,12.3710585 C17.9218036,12.3887956 17.914321,12.4060985 17.9063266,12.4232215 C17.897529,12.4419547 17.8881407,12.4604898 17.8782035,12.4786822 C17.8701866,12.4935488 17.8613648,12.5087703 17.8521085,12.5238 C17.8384932,12.5456983 17.8245831,12.5664533 17.8099369,12.5866395 L17.7902954,12.6128994 L17.7902954,12.6128994 C17.7848777,12.6197272 17.7826022,12.6225945 17.7803112,12.625449 L17.7071068,12.7071068 L14.0502525,16.363961 C13.6597282,16.7544853 13.0265633,16.7544853 12.636039,16.363961 C12.275555,16.0034771 12.2478255,15.436246 12.5528504,15.0439548 L12.636039,14.9497475 L14.586,12.9991458 L7,13 C6.44771525,13 6,12.5522847 6,12 C6,11.4871642 6.38604019,11.0644928 6.88337887,11.0067277 L7,11 L14.586,10.9991458 L12.636039,9.05025253 C12.2455147,8.65972824 12.2455147,8.02656326 12.636039,7.63603897 C12.9965229,7.27555501 13.563754,7.24782547 13.9560452,7.55285036 L14.0502525,7.63603897 L17.7071068,11.2928932 L17.7633128,11.3538862 L17.7633128,11.3538862 L17.7735424,11.367 L17.7605424,11.353 L17.7765424,11.371 Z"/>
</svg>

<svg xmlns="http://www.w3.org/2000/svg" viewBox="0 0 24 24">
  <path d="M16.32 1a3 3 0 0 1 2.63 1.55l4.4 8c.5.9.5 2 0 2.9l-4.4 8A3 3 0 0 1 16.32 23H7.68a3 3 0 0 1-2.63-1.55l-4.4-8a3 3 0 0 1 0-2.9l4.4-8A3 3 0 0 1 7.68 1zm0 2H7.68a1 1 0 0 0-.87.52l-4.4 8a1 1 0 0 0 0 .96l4.4 8a1 1 0 0 0 .87.52h8.64a1 1 0 0 0 .87-.52l4.4-8a1 1 0 0 0 0-.96l-4.4-8a1 1 0 0 0-.87-.52zm1.46 8.37.03.05a1.04 1.04 0 0 1 .07.1l.02.05a.97.97 0 0 1 .1.34v.16l-.01.08a1.09 1.09 0 0 1-.14.37l-.04.07-.02.02-.01.02-.07.08-3.66 3.65a1 1 0 0 1-1.5-1.32l.09-.09L14.59 13H7a1 1 0 0 1-.12-2h7.71l-1.95-1.95a1 1 0 0 1 1.32-1.5l.09.09 3.66 3.65.05.06.01.02v-.02.02z"/>
</svg>
